!!!ONB: MCCC : IFC0058_03 : Extracted Monophonic Melody
!!!COM: Chopin, Frédéric
!!!OPR: Mazurkas, Op.67
!!!OMV: 3
!!!SCT: Op.67 (Posthumous)
!!!ODT: 1830///
**kern
*thru
*staff1
*clefG2
*k[f#c#g#d#]
*c#:
*M3/4
8e
8a
=1
4g#
4.cc#
8dd#
=2
8cc#
8b#
4dd#
4r
=3
4r
4.dd#
8ee
=4
8dd#
8cc#
4ee
4r
=5
4r
4.gg#
8aa
=6
8gg#
8ff##
4.dd#
8ee
=7
4ff#
4.gg#
8ff#
=8
8ee
8dd#
4cc#
8b
8a
=9
4g#
4.cc#
8dd#
=10
8cc#
8b#
4dd#
4r
=11
4r
4.dd#
8ee
=12
8dd#
8cc#
2ee
=13
4b
4.bb
8ccc#
=14
8bb
8aa#
4.ff#
8gg#
=15
4aa
4.bb
8aa
=16
8gg#
8dd#
8ee
8dd#
8ee
8ff#
=17
4gg#[
8gg#]
8dd#
8gg#
8ff#
=18
4ee
8b#
8dd#
8cc#
8b
=19
8a
16r
16a
4a
4a
=20
8g#
8cc#
8dd#
8ee
8gg#
8ccc#
=21
4gg#[
8gg#]
8dd#
8gg#
8ff#
=22
4ee
8b#
8dd#
8cc#
8a#
=23
8d#
8e
8d#
8c##
8d#
8b
=24
8g#
8G#
2g#:
=25
4gg#[
8gg#]
8dd#
8gg#
8ff#
=26
4ee
8b#
8dd#
8cc#
8b
=27
8a
16r
16a
4a
4a
=28
8g#
8cc#
8dd#
8ee
8gg#
8ccc#
=29
[4gg#
8gg#]
8dd#
8gg#
8gg
=30
8ff#
8ee
8b#
8dd#
8cc#
8f##
=31
8g#
8a
8g#
8f##
8g#
8ee
=32
8cc#
8c#
2cc#
=33
*k[b-e-a-d-g-]
8.e-
16e-
4e-
4f
=34
2c
4f
=35
8.e-
16e-
4e-
4f
=36
8.e-
16d
4e-
4d-
=37
8.e-
16e-
4e-
4f
=38
8a-
8b-
4g-
4f
=39
8.e-
16dd-
4e-
4f
=40
8.d-
16d
4e-
4d-
=41
8a-
16r
16a-
4a-
4b-
=42
8.dd-
16cc-
4cc-
4b-
=43
8.a-
16ee-
4a-
4b-
=44
4e-
8.a-
16g
4a-
=45
8r
16r
16a-
4a-
4b-
=46
8.dd-
16cc-
4cc-
4b-
=47
8.ee-
16dd-
4dd-
4cc-
=48
8.ee-
16dd
2dd
=49
*k[f#c#g#d#]
4dd]
4.cc#
8dd#
=50
8.cc#
16b#
4dd#
8b
8a
=51
4g#
4.dd#
8ee
=52
8.dd#
16cc#
4ee
8b
8a
=53
4g#
4.gg#
8aa
=54
8gg#
8ff##
4.dd#
8ee
=55
4ff#
4.gg#
8ff#
=56
8ee
8dd#
4cc#
8b
8a
=57
4g#
4.cc#
8dd#
=58
8cc#
8b#
4dd#
8b
8a
=59
4g#
4.dd#
8ee
=60
8.dd#
16cc#
2ee#
=61
8dd#
8cc#
4ff#
8dd#
8cc#
=62
4ff##
8dd#
8cc#
8ccc#
8r
=63
8g#
8a
8g#
8f##
8g#
8ee
=64
8cc#
8c#
2cc#
=65
4r
4.gg#
8aa
=66
8gg#
8ff##
2dd#
=67
4ff#
4.gg#
8ff#
=68
8ee
8dd#
4cc#
8b
8a
=69
4g#
4.cc#
8dd#
=70
8cc#
8b#
4dd#
8b
8a
=71
4g#
4.dd#
8ee
=72
8dd#
8cc#
8ddd#
8ccc#
4eee#
=73
8dd#
8cc#
8ddd#
8ccc#
4fff#
=74
8ddd#
8ccc#
4fff##
8cccc#
8r
=75
8G#
8A
8G#
8F##
8G#
8e
=76
8.c#
16C#
2c#
==
*-
